X:260
T: Kaihuangge
N: C1757
O: China, Shandong Zhucheng
S: III, 322]
R: Haozi]
M: 2/4
L: 1/16
K: A
c2c2c2B2 | c2B2A4 | e2e2f2c2 | e4e4
c2B2c2B2 | c2B2A2F2 | F3EA2F2 | E4E4
e3fe2f2 | e2Bce2z2
F2EFG2F2 | E8

